X:1
T:Trasiga rocken - beat
R:Polska
Z:Anton Teljebäck
M:3/4
L:1/8
K:Bm
|: B>B z2 B>c | A>A z2 c>A | G>G z2 G>F | G2 A2 B2 | 
B>B z2 B>c | A>A z2 c>A | G>G z2 G2 | A2 B4  :|

